X: 58
T:Kathleen's Waltz
M:3/4
L:1/8
F:http://blackrosetheband.googlepages.com/ABCTUNES.ABC May 2009
S:Konnarock Critters
K:Bm
|:"Bm"[B3f3] ([Bf][B2b2]) | [B3b3] fd2|"A"e3 fed|cAB c/2B/2 A2|"D"F4 A2|
"G"B3 c d2|"A"c3 B {cB}A2|1 "F#"F4 A2:|2 "Bm"B4 A2|
|:"G"G4 {Bc}B2|"Bm"F4 {Bc}B2|"A"efg f{gf}ed|cAB c/2B/2 A2|"G"G4 {Bc}B2|"Bm"F4 {Bc}B2|"A"efe dcA|1 "D"d4 A2:|2 "D"d6||

